style/icons/refresh.svg

<svg width="28" height="29" viewBox="0 0 28 29" fill="none" xmlns="http://www.w3.org/2000/svg">
<mask id="mask0_434_4350" style="mask-type:luminance" maskUnits="userSpaceOnUse" x="0" y="3" width="26" height="26">
<path d="M0.668579 3.67725H25.8136V28.8328H0.668579V3.67725Z" fill="white"/>
</mask>
<g mask="url(#mask0_434_4350)">
<mask id="mask1_434_4350" style="mask-type:luminance" maskUnits="userSpaceOnUse" x="0" y="3" width="26" height="27">
<path d="M13.3284 3.67725C6.33784 3.67725 0.668579 9.34597 0.668579 16.3423C0.668579 23.3358 6.33784 29.0074 13.3284 29.0074C20.3218 29.0074 25.9882 23.3358 25.9882 16.3423C25.9882 9.34597 20.3218 3.67725 13.3284 3.67725Z" fill="white"/>
</mask>
<g mask="url(#mask1_434_4350)">
<path d="M13.3284 3.67725C6.33784 3.67725 0.668579 9.34597 0.668579 16.3423C0.668579 23.3358 6.33784 29.0074 13.3284 29.0074C20.3218 29.0074 25.9882 23.3358 25.9882 16.3423C25.9882 9.34597 20.3218 3.67725 13.3284 3.67725Z" stroke="#482F87" stroke-width="6.70462"/>
</g>
</g>
<path d="M24.018 5.15088L17.8307 10.0975" stroke="white" stroke-width="6.1459" stroke-linecap="round"/>
<mask id="mask2_434_4350" style="mask-type:luminance" maskUnits="userSpaceOnUse" x="13" y="0" width="8" height="11">
<path d="M13.1683 0.483398H20.5489V10.2545H13.1683V0.483398Z" fill="white"/>
</mask>
<g mask="url(#mask2_434_4350)">
<mask id="mask3_434_4350" style="mask-type:luminance" maskUnits="userSpaceOnUse" x="13" y="0" width="8" height="11">
<path d="M20.0366 4.4112L14.5507 0.643701C14.2801 0.457364 13.9279 0.436983 13.6398 0.588382C13.3488 0.742692 13.1683 1.04258 13.1683 1.37158V9.35205C13.1683 9.67814 13.3488 9.97802 13.6398 10.1323C13.9279 10.2837 14.2801 10.2634 14.5507 10.0799L20.0366 6.30951C20.348 6.09406 20.5372 5.73885 20.5372 5.36036C20.5372 4.98186 20.348 4.62666 20.0366 4.4112Z" fill="white"/>
</mask>
<g mask="url(#mask3_434_4350)">
<path d="M13.1683 11.0289V-0.323105H21.419V11.0289H13.1683Z" fill="#482F87"/>
</g>
</g>
<path d="M22.4204 12.0191C22.1963 12.0191 21.9838 11.9754 21.7772 11.891C21.5735 11.8066 21.3901 11.6843 21.2329 11.5271C21.0758 11.3698 20.9565 11.1893 20.8692 10.9826C20.7848 10.7788 20.744 10.5633 20.744 10.3421C20.744 10.1208 20.7848 9.90535 20.8692 9.70154C20.9565 9.49482 21.0758 9.31431 21.2329 9.15709C21.3901 8.99986 21.5735 8.87758 21.7772 8.79315C21.9838 8.70871 22.1963 8.66504 22.4204 8.66504C22.6415 8.66504 22.8569 8.70871 23.0606 8.79315C23.2672 8.87758 23.4477 8.99986 23.6048 9.15709C23.762 9.31431 23.8842 9.49482 23.9686 9.70154C24.053 9.90535 24.0967 10.1208 24.0967 10.3421C24.0967 10.5633 24.053 10.7788 23.9686 10.9826C23.8842 11.1893 23.762 11.3698 23.6048 11.5271C23.4477 11.6843 23.2672 11.8066 23.0606 11.891C22.8569 11.9754 22.6415 12.0191 22.4204 12.0191Z" fill="#482F87"/>
</svg>

<svg xmlns="http://www.w3.org/2000/svg" width="28" height="29" fill="none"><mask id="a" width="26" height="26" x="0" y="3" maskUnits="userSpaceOnUse" style="mask-type:luminance"><path fill="#fff" d="M.669 3.677h25.145v25.156H.669z"/></mask><g mask="url(#a)"><mask id="b" width="26" height="27" x="0" y="3" maskUnits="userSpaceOnUse" style="mask-type:luminance"><path fill="#fff" d="M13.328 3.677c-6.99 0-12.66 5.669-12.66 12.665 0 6.994 5.67 12.665 12.66 12.665 6.994 0 12.66-5.671 12.66-12.665 0-6.996-5.666-12.665-12.66-12.665"/></mask><g mask="url(#b)"><path stroke="#482F87" stroke-width="6.705" d="M13.328 3.677c-6.99 0-12.66 5.669-12.66 12.665 0 6.994 5.67 12.665 12.66 12.665 6.994 0 12.66-5.671 12.66-12.665 0-6.996-5.666-12.665-12.66-12.665Z"/></g></g><path stroke="#fff" stroke-linecap="round" stroke-width="6.146" d="m24.018 5.15-6.187 4.948"/><mask id="c" width="8" height="11" x="13" y="0" maskUnits="userSpaceOnUse" style="mask-type:luminance"><path fill="#fff" d="M13.168.483h7.38v9.772h-7.38V.482Z"/></mask><g mask="url(#c)"><mask id="d" width="8" height="11" x="13" y="0" maskUnits="userSpaceOnUse" style="mask-type:luminance"><path fill="#fff" d="M20.037 4.411 14.55.644a.88.88 0 0 0-.911-.056.88.88 0 0 0-.472.784v7.98a.883.883 0 0 0 1.383.728l5.486-3.77c.311-.216.5-.571.5-.95a1.16 1.16 0 0 0-.5-.949Z"/></mask><g mask="url(#d)"><path fill="#482F87" d="M13.168 11.029V-.323h8.251v11.352z"/></g></g><path fill="#482F87" d="M22.42 12.02a1.68 1.68 0 0 1-1.55-1.037 1.7 1.7 0 0 1-.126-.64 1.66 1.66 0 0 1 1.033-1.55 1.68 1.68 0 0 1 1.828.364 1.666 1.666 0 0 1 0 2.37 1.67 1.67 0 0 1-1.184.492Z"/></svg>
